assets/azurenetworkinterfaces/original.svg

<svg height="18" viewBox="0 0 18 18" width="18" xmlns="http://www.w3.org/2000/svg" xmlns:xlink="http://www.w3.org/1999/xlink"><linearGradient id="a" gradientUnits="userSpaceOnUse" x1="9.01" x2="9.01" y1="16.5" y2="1.5"><stop offset="0" stop-color="#5e9641"/><stop offset=".34" stop-color="#6baa42"/><stop offset=".67" stop-color="#73b743"/><stop offset="1" stop-color="#76bb43"/></linearGradient><path d="m15.89 2.91h1.27a.34.34 0 0 1 .34.34v3.5a.34.34 0 0 1 -.34.34h-1.27zm0 6.09h1.27a.34.34 0 0 1 .34.34v5.86a.34.34 0 0 1 -.34.34h-1.27z" fill="#ffca00"/><rect fill="url(#a)" height="15" rx=".69" width="13.76" x="2.13" y="1.5"/><path d="m5.9 12.9h-.71a.2.2 0 0 1 -.19-.21v-8.35a.19.19 0 0 1 .19-.2h1.93a.19.19 0 0 1 .19.2.2.2 0 0 1 -.19.21h-1.74v7.93h.52a.2.2 0 0 1 .19.21.21.21 0 0 1 -.19.21" fill="#b4ec36"/><path d="m6 13.92h-1.6a.2.2 0 0 1 -.19-.21l-.13-10.33a.2.2 0 0 1 .06-.15.16.16 0 0 1 .13-.06h2.85v.41h-2.65l.12 9.92h1.41zm6-.92h-1.59a.2.2 0 0 1 -.14-.07.18.18 0 0 1 -.06-.14v-4.89a.19.19 0 0 1 .19-.2h.91v-2.25h.38v2.44a.2.2 0 0 1 -.18.21h-.91v4.42h1.4z" fill="#b4ec36"/><g fill="#365615"><rect height="3.11" rx=".26" width="6.14" x="7.07" y="2.29"/><rect height="1.09" rx=".26" transform="matrix(0 1 -1 0 21.54 4.93)" width="4.9" x="5.86" y="12.69"/><rect height="1.09" rx=".26" transform="matrix(0 1 -1 0 19.7 6.82)" width="4.9" x="3.99" y="12.71"/></g><rect fill="#f2f2f2" height="1.09" rx=".26" transform="matrix(0 1 -1 0 25.68 .83)" width="4.9" x="9.98" y="12.71"/><ellipse cx="8.11" cy="8.06" fill="#f2f2f2" rx="1.04" ry="1.12"/><path d="m2.11 12.25h-1.27a.34.34 0 0 1 -.34-.3v-5.86a.34.34 0 0 1 .34-.34h1.27z" fill="#3b3b3b"/></svg>

<svg xmlns="http://www.w3.org/2000/svg" id="e0050721-e8d8-4c79-ae50-d8fc2871d932" width="18" height="18" viewBox="0 0 18 18"><defs><linearGradient id="fcad3287-b71c-44fa-971a-6a18bcf384a0" x1="9.01" x2="9.01" y1="16.5" y2="1.5" gradientUnits="userSpaceOnUse"><stop offset="0" stop-color="#5e9641"/><stop offset=".34" stop-color="#6baa42"/><stop offset=".67" stop-color="#73b743"/><stop offset="1" stop-color="#76bb43"/></linearGradient></defs><title>Icon-networking-80</title><path fill="#ffca00" d="M15.89 2.91h1.27a.34.34 0 0 1 .34.34v3.5a.34.34 0 0 1-.34.34h-1.27zM15.89 9h1.27a.34.34 0 0 1 .34.34v5.86a.34.34 0 0 1-.34.34h-1.27z"/><rect width="13.76" height="15" x="2.13" y="1.5" fill="url(#fcad3287-b71c-44fa-971a-6a18bcf384a0)" rx=".69"/><path fill="#b4ec36" d="M5.9 12.9h-.71a.2.2 0 0 1-.19-.21V4.34a.19.19 0 0 1 .19-.2h1.93a.19.19 0 0 1 .19.2.2.2 0 0 1-.19.21H5.38v7.93h.52a.2.2 0 0 1 .19.21.21.21 0 0 1-.19.21"/><path fill="#b4ec36" d="M6 13.92H4.4a.2.2 0 0 1-.19-.21L4.08 3.38a.2.2 0 0 1 .06-.15.16.16 0 0 1 .13-.06h2.85v.41H4.47l.12 9.92H6ZM12 13h-1.59a.2.2 0 0 1-.14-.07.18.18 0 0 1-.06-.14V7.9a.19.19 0 0 1 .19-.2h.91V5.45h.38v2.44a.2.2 0 0 1-.18.21h-.91v4.42H12Z"/><rect width="6.14" height="3.11" x="7.07" y="2.29" fill="#365615" rx=".26"/><rect width="4.9" height="1.09" x="5.86" y="12.69" fill="#365615" rx=".26" transform="rotate(90 8.305 13.235)"/><rect width="4.9" height="1.09" x="3.99" y="12.71" fill="#365615" rx=".26" transform="rotate(90 6.44 13.26)"/><rect width="4.9" height="1.09" x="9.98" y="12.71" fill="#f2f2f2" rx=".26" transform="rotate(90 12.425 13.255)"/><ellipse cx="8.11" cy="8.06" fill="#f2f2f2" rx="1.04" ry="1.12"/><path fill="#3b3b3b" d="M2.11 12.25H.84a.34.34 0 0 1-.34-.3V6.09a.34.34 0 0 1 .34-.34h1.27z"/></svg>
